symbols/web/sentiment_neutral/materialsymbolsrounded/sentiment_neutral_wght200_24px.svg

<svg xmlns="http://www.w3.org/2000/svg" height="24" width="24"><path d="M15.3 10.625q.475 0 .8-.325.325-.325.325-.8 0-.475-.312-.8-.313-.325-.813-.325-.475 0-.787.325-.313.325-.313.8 0 .475.313.8.312.325.787.325Zm-6.6 0q.475 0 .788-.325.312-.325.312-.8 0-.475-.312-.8-.313-.325-.788-.325-.475 0-.8.325-.325.325-.325.8 0 .475.313.8.312.325.812.325Zm.9 4.575h4.8q.2 0 .325-.125t.125-.325q0-.2-.125-.325T14.4 14.3H9.6q-.2 0-.325.125t-.125.325q0 .2.125.325t.325.125ZM12 21q-1.875 0-3.512-.712-1.638-.713-2.85-1.926-1.213-1.212-1.926-2.85Q3 13.875 3 12t.712-3.513q.713-1.637 1.926-2.85 1.212-1.212 2.85-1.925Q10.125 3 12 3t3.513.712q1.637.713 2.85 1.925 1.212 1.213 1.925 2.85Q21 10.125 21 12t-.712 3.512q-.713 1.638-1.925 2.85-1.213 1.213-2.85 1.926Q13.875 21 12 21Zm0-9Zm0 8q3.325 0 5.663-2.337Q20 15.325 20 12t-2.337-5.663Q15.325 4 12 4T6.338 6.337Q4 8.675 4 12t2.338 5.663Q8.675 20 12 20Z"/></svg>

<svg xmlns="http://www.w3.org/2000/svg" height="24" width="24"><path d="M15.3 10.625Q15.775 10.625 16.1 10.3Q16.425 9.975 16.425 9.5Q16.425 9.025 16.113 8.7Q15.8 8.375 15.3 8.375Q14.825 8.375 14.513 8.7Q14.2 9.025 14.2 9.5Q14.2 9.975 14.513 10.3Q14.825 10.625 15.3 10.625ZM8.7 10.625Q9.175 10.625 9.488 10.3Q9.8 9.975 9.8 9.5Q9.8 9.025 9.488 8.7Q9.175 8.375 8.7 8.375Q8.225 8.375 7.9 8.7Q7.575 9.025 7.575 9.5Q7.575 9.975 7.888 10.3Q8.2 10.625 8.7 10.625ZM9.6 15.2H14.4Q14.6 15.2 14.725 15.075Q14.85 14.95 14.85 14.75Q14.85 14.55 14.725 14.425Q14.6 14.3 14.4 14.3H9.6Q9.4 14.3 9.275 14.425Q9.15 14.55 9.15 14.75Q9.15 14.95 9.275 15.075Q9.4 15.2 9.6 15.2ZM12 21Q10.125 21 8.488 20.288Q6.85 19.575 5.638 18.362Q4.425 17.15 3.712 15.512Q3 13.875 3 12Q3 10.125 3.712 8.487Q4.425 6.85 5.638 5.637Q6.85 4.425 8.488 3.712Q10.125 3 12 3Q13.875 3 15.513 3.712Q17.15 4.425 18.363 5.637Q19.575 6.85 20.288 8.487Q21 10.125 21 12Q21 13.875 20.288 15.512Q19.575 17.15 18.363 18.362Q17.15 19.575 15.513 20.288Q13.875 21 12 21ZM12 12Q12 12 12 12Q12 12 12 12Q12 12 12 12Q12 12 12 12Q12 12 12 12Q12 12 12 12Q12 12 12 12Q12 12 12 12ZM12 20Q15.325 20 17.663 17.663Q20 15.325 20 12Q20 8.675 17.663 6.337Q15.325 4 12 4Q8.675 4 6.338 6.337Q4 8.675 4 12Q4 15.325 6.338 17.663Q8.675 20 12 20Z"/></svg>
